X:1
T:Maid Freed From Gallows
M:4/4
L:1/4
K:D
 A F A F| A F D3/2 D/2| d3/2 d/2 B d| A3 A| d3/2 d/2 B d| B A F D/2D/2|\
 F3/2 F/2 E A| D4|
